rospo-dark/16x16/actions/filename-title-amarok.svg

<svg height="16" viewBox="0 0 16 16" width="16" xmlns="http://www.w3.org/2000/svg"><path d="m4 1c-1.108 0-2 .892-2 2v10c0 1.108.892 2 2 2h8c1.108 0 2-.892 2-2v-10c0-1.108-.892-2-2-2zm1 2h6v2h-6z" fill="#d3dae3"/></svg>

<?xml version="1.0" encoding="UTF-8" standalone="no"?>
<svg xmlns="http://www.w3.org/2000/svg" width="22" height="22" viewBox="0 0 22 22">
 <defs>
  <style type="text/css" id="current-color-scheme">
   .ColorScheme-Text { color:#d3dae3; } .ColorScheme-Highlight { color:#5294e2; }
  </style>
 </defs>
 <path style="fill:currentColor;opacity:1" class="ColorScheme-Text" transform="translate(3 3)" d="M 4 1 C 2.892 1 2 1.892 2 3 L 2 13 C 2 14.108 2.892 15 4 15 L 12 15 C 13.108 15 14 14.108 14 13 L 14 3 C 14 1.892 13.108 1 12 1 L 4 1 z M 5 3 L 11 3 L 11 5 L 5 5 L 5 3 z"/>
</svg>
